static/img/realio-icon.svg

<svg width="256" height="256" viewBox="0 0 256 256" fill="none" xmlns="http://www.w3.org/2000/svg">
<circle cx="128" cy="128" r="128" fill="white"/>
<path fill-rule="evenodd" clip-rule="evenodd" d="M120.558 127.956C154.834 127.737 183.07 100.903 185.521 67.1956C185.609 65.9261 185.215 64.788 184.339 63.8249C183.464 62.8618 182.369 62.3803 181.056 62.3803H124.629C122.178 62.3803 120.164 64.394 120.164 66.8454V116.969C120.164 122.878 114.736 127.956 108.476 127.956H65.4008C63.5622 127.956 61.9863 129.007 61.2859 130.714C60.5855 132.421 60.9357 134.26 62.249 135.573L118.851 192.175C119.726 193.051 120.777 193.488 122.003 193.488H174.928C176.766 193.488 178.342 192.438 179.042 190.73C179.743 189.023 179.393 187.185 178.079 185.871L122.528 130.32L121.477 129.27L120.164 127.956H120.558ZM255.956 128C255.956 57.3023 198.654 0 127.956 0C57.2586 0 0 57.3023 0 128C0 198.698 57.3023 256 128 256C198.698 256 255.956 198.654 255.956 128Z" fill="black"/>
</svg>

<svg xmlns="http://www.w3.org/2000/svg" width="256" height="256" fill="none"><circle cx="128" cy="128" r="128" fill="#fff"/><path fill="#000" fill-rule="evenodd" d="M120.558 127.956c34.276-.219 62.512-27.053 64.963-60.76.088-1.27-.306-2.408-1.182-3.371q-1.313-1.445-3.283-1.445h-56.427c-2.451 0-4.465 2.014-4.465 4.465v50.124c0 5.909-5.428 10.987-11.688 10.987H65.401c-1.839 0-3.415 1.051-4.115 2.758s-.35 3.546.963 4.859l56.602 56.602q1.313 1.313 3.152 1.313h52.925c1.838 0 3.414-1.05 4.114-2.758.701-1.707.351-3.545-.963-4.859l-55.551-55.551-1.051-1.05-1.313-1.314zm135.398.044c0-70.698-57.302-128-128-128C57.259 0 0 57.302 0 128s57.302 128 128 128 127.956-57.346 127.956-128" clip-rule="evenodd"/></svg>
